public/assets/images/icons/game.svg

<svg width="120" height="120" viewBox="0 0 120 120" fill="none" xmlns="http://www.w3.org/2000/svg">
<path d="M55.3057 18.4592C55.3057 15.9964 57.3021 14 59.7648 14C62.2276 14 64.224 15.9964 64.224 18.4592V57.8878C64.224 60.3505 62.2276 62.3469 59.7648 62.3469C57.3021 62.3469 55.3057 60.3505 55.3057 57.8878V18.4592Z" fill="#E6C3E6"/>
<foreignObject x="-25" y="5.12256" width="170.71" height="130.877"><div xmlns="http://www.w3.org/1999/xhtml" style="backdrop-filter:blur(15px);clip-path:url(#bgblur_0_911_3224_clip_path);height:100%;width:100%"></div></foreignObject><path data-figma-bg-blur-radius="30" d="M5 70.5613C5 50.989 20.7238 35.1226 40.1202 35.1226H80.5898C99.9862 35.1226 115.71 50.989 115.71 70.5613C115.71 90.1336 99.9862 106 80.5898 106H40.1202C20.7238 106 5 90.1336 5 70.5613Z" fill="url(#paint0_linear_911_3224)" fill-opacity="0.3"/>
<foreignObject x="-25" y="5.12256" width="170.71" height="130.877"><div xmlns="http://www.w3.org/1999/xhtml" style="backdrop-filter:blur(15px);clip-path:url(#bgblur_1_911_3224_clip_path);height:100%;width:100%"></div></foreignObject><g data-figma-bg-blur-radius="30">
<mask id="path-3-inside-1_911_3224" fill="white">
<path fill-rule="evenodd" clip-rule="evenodd" d="M80.5898 35.3573H40.1202C20.8523 35.3573 5.23258 51.1187 5.23258 70.5613C5.23258 90.004 20.8523 105.765 40.1202 105.765H80.5898C99.8577 105.765 115.477 90.004 115.477 70.5613C115.477 51.1187 99.8577 35.3573 80.5898 35.3573ZM40.1202 35.1226C20.7238 35.1226 5 50.989 5 70.5613C5 90.1336 20.7238 106 40.1202 106H80.5898C99.9862 106 115.71 90.1336 115.71 70.5613C115.71 50.989 99.9862 35.1226 80.5898 35.1226H40.1202Z"/>
</mask>
<path fill-rule="evenodd" clip-rule="evenodd" d="M80.5898 35.3573H40.1202C20.8523 35.3573 5.23258 51.1187 5.23258 70.5613C5.23258 90.004 20.8523 105.765 40.1202 105.765H80.5898C99.8577 105.765 115.477 90.004 115.477 70.5613C115.477 51.1187 99.8577 35.3573 80.5898 35.3573ZM40.1202 35.1226C20.7238 35.1226 5 50.989 5 70.5613C5 90.1336 20.7238 106 40.1202 106H80.5898C99.9862 106 115.71 90.1336 115.71 70.5613C115.71 50.989 99.9862 35.1226 80.5898 35.1226H40.1202Z" fill="url(#paint1_linear_911_3224)" fill-opacity="0.3"/>
<path d="M40.1202 36.3573H80.5898V34.3573H40.1202V36.3573ZM6.23258 70.5613C6.23258 51.6624 21.4131 36.3573 40.1202 36.3573V34.3573C20.2915 34.3573 4.23258 50.5749 4.23258 70.5613H6.23258ZM40.1202 104.765C21.4131 104.765 6.23258 89.4603 6.23258 70.5613H4.23258C4.23258 90.5478 20.2915 106.765 40.1202 106.765V104.765ZM80.5898 104.765H40.1202V106.765H80.5898V104.765ZM114.477 70.5613C114.477 89.4603 99.2969 104.765 80.5898 104.765V106.765C100.418 106.765 116.477 90.5478 116.477 70.5613H114.477ZM80.5898 36.3573C99.2969 36.3573 114.477 51.6624 114.477 70.5613H116.477C116.477 50.5749 100.418 34.3573 80.5898 34.3573V36.3573ZM6 70.5613C6 51.5328 21.2846 36.1226 40.1202 36.1226V34.1226C20.1631 34.1226 4 50.4453 4 70.5613H6ZM40.1202 105C21.2846 105 6 89.5899 6 70.5613H4C4 90.6774 20.1631 107 40.1202 107V105ZM80.5898 105H40.1202V107H80.5898V105ZM114.71 70.5613C114.71 89.5899 99.4254 105 80.5898 105V107C100.547 107 116.71 90.6774 116.71 70.5613H114.71ZM80.5898 36.1226C99.4254 36.1226 114.71 51.5328 114.71 70.5613H116.71C116.71 50.4453 100.547 34.1226 80.5898 34.1226V36.1226ZM40.1202 36.1226H80.5898V34.1226H40.1202V36.1226Z" fill="url(#paint2_linear_911_3224)" fill-opacity="0.42" mask="url(#path-3-inside-1_911_3224)"/>
</g>
<rect x="25.7344" y="68.3833" width="20.3289" height="4.35619" rx="2.17809" fill="white"/>
<rect x="38.2217" y="60.4695" width="20.3289" height="4.35619" rx="2.1781" transform="rotate(90 38.2217 60.4695)" fill="white"/>
<ellipse cx="91.214" cy="64.9286" rx="3.52041" ry="3.52041" transform="rotate(90 91.214 64.9286)" fill="white"/>
<ellipse cx="80.8878" cy="77.1327" rx="3.52041" ry="3.52041" transform="rotate(90 80.8878 77.1327)" fill="white"/>
<defs>
<clipPath id="bgblur_0_911_3224_clip_path" transform="translate(25 -5.12256)"><path d="M5 70.5613C5 50.989 20.7238 35.1226 40.1202 35.1226H80.5898C99.9862 35.1226 115.71 50.989 115.71 70.5613C115.71 90.1336 99.9862 106 80.5898 106H40.1202C20.7238 106 5 90.1336 5 70.5613Z"/>
</clipPath><clipPath id="bgblur_1_911_3224_clip_path" transform="translate(25 -5.12256)"><path fill-rule="evenodd" clip-rule="evenodd" d="M80.5898 35.3573H40.1202C20.8523 35.3573 5.23258 51.1187 5.23258 70.5613C5.23258 90.004 20.8523 105.765 40.1202 105.765H80.5898C99.8577 105.765 115.477 90.004 115.477 70.5613C115.477 51.1187 99.8577 35.3573 80.5898 35.3573ZM40.1202 35.1226C20.7238 35.1226 5 50.989 5 70.5613C5 90.1336 20.7238 106 40.1202 106H80.5898C99.9862 106 115.71 90.1336 115.71 70.5613C115.71 50.989 99.9862 35.1226 80.5898 35.1226H40.1202Z"/>
</clipPath><linearGradient id="paint0_linear_911_3224" x1="16.8472" y1="41.6619" x2="108.457" y2="115.754" gradientUnits="userSpaceOnUse">
<stop stop-color="#DE5AFF" stop-opacity="0.9"/>
<stop offset="0.447036" stop-color="#FF56FC" stop-opacity="0.955296"/>
<stop offset="1" stop-color="#E44EFF" stop-opacity="0.9"/>
</linearGradient>
<linearGradient id="paint1_linear_911_3224" x1="60.355" y1="35.1226" x2="60.355" y2="106" gradientUnits="userSpaceOnUse">
<stop offset="0.025" stop-color="#DE5AFF" stop-opacity="0.9"/>
<stop offset="0.495" stop-color="#FF56FC" stop-opacity="0.96"/>
<stop offset="1" stop-color="#E44EFF" stop-opacity="0.9"/>
</linearGradient>
<linearGradient id="paint2_linear_911_3224" x1="20.9324" y1="32.5912" x2="96.8978" y2="101.871" gradientUnits="userSpaceOnUse">
<stop stop-color="#FAE7FF" stop-opacity="0.52"/>
<stop offset="0.473958" stop-color="#FF56FC" stop-opacity="0.96"/>
<stop offset="0.661667" stop-color="#F6B4FF" stop-opacity="0.1"/>
</linearGradient>
</defs>
</svg>

<svg xmlns="http://www.w3.org/2000/svg" width="120" height="120" fill="none"><path fill="#E6C3E6" d="M55.306 18.46a4.46 4.46 0 1 1 8.918 0v39.428a4.46 4.46 0 0 1-8.918 0z"/><foreignObject width="170.71" height="130.877" x="-25" y="5.123"><div xmlns="http://www.w3.org/1999/xhtml" style="backdrop-filter:blur(15px);clip-path:url(#a);height:100%;width:100%"/></foreignObject><path fill="url(#b)" fill-opacity=".3" d="M5 70.561C5 50.99 20.724 35.123 40.12 35.123h40.47c19.396 0 35.12 15.866 35.12 35.438S99.986 106 80.59 106H40.12C20.724 106 5 90.134 5 70.561" data-figma-bg-blur-radius="30"/><foreignObject width="170.71" height="130.877" x="-25" y="5.123"><div xmlns="http://www.w3.org/1999/xhtml" style="backdrop-filter:blur(15px);clip-path:url(#c);height:100%;width:100%"/></foreignObject><g data-figma-bg-blur-radius="30"><mask id="f" fill="#fff"><path fill-rule="evenodd" d="M80.59 35.357H40.12c-19.268 0-34.887 15.762-34.887 35.204 0 19.443 15.62 35.204 34.887 35.204h40.47c19.268 0 34.887-15.761 34.887-35.204 0-19.442-15.62-35.204-34.887-35.204m-40.47-.234C20.724 35.123 5 50.989 5 70.56S20.724 106 40.12 106h40.47c19.396 0 35.12-15.866 35.12-35.439 0-19.572-15.724-35.438-35.12-35.438z" clip-rule="evenodd"/></mask><path fill="url(#d)" fill-opacity=".3" fill-rule="evenodd" d="M80.59 35.357H40.12c-19.268 0-34.887 15.762-34.887 35.204 0 19.443 15.62 35.204 34.887 35.204h40.47c19.268 0 34.887-15.761 34.887-35.204 0-19.442-15.62-35.204-34.887-35.204m-40.47-.234C20.724 35.123 5 50.989 5 70.56S20.724 106 40.12 106h40.47c19.396 0 35.12-15.866 35.12-35.439 0-19.572-15.724-35.438-35.12-35.438z" clip-rule="evenodd"/><path fill="url(#e)" fill-opacity=".42" d="M40.12 36.357h40.47v-2H40.12zM6.233 70.561c0-18.899 15.18-34.204 33.887-34.204v-2c-19.828 0-35.887 16.218-35.887 36.204zm33.887 34.204c-18.707 0-33.887-15.305-33.887-34.204h-2c0 19.987 16.059 36.204 35.887 36.204zm40.47 0H40.12v2h40.47zm33.887-34.204c0 18.9-15.18 34.204-33.887 34.204v2c19.828 0 35.887-16.217 35.887-36.204zM80.59 36.357c18.707 0 33.887 15.305 33.887 34.204h2c0-19.986-16.059-36.204-35.887-36.204zM6 70.561c0-19.028 15.285-34.438 34.12-34.438v-2C20.163 34.123 4 50.445 4 70.56zM40.12 105C21.285 105 6 89.59 6 70.561H4C4 90.677 20.163 107 40.12 107zm40.47 0H40.12v2h40.47zm34.12-34.439C114.71 89.59 99.425 105 80.59 105v2c19.957 0 36.12-16.323 36.12-36.439zM80.59 36.123c18.835 0 34.12 15.41 34.12 34.438h2c0-20.116-16.163-36.438-36.12-36.438zm-40.47 0h40.47v-2H40.12z" mask="url(#f)"/></g><rect width="20.329" height="4.356" x="25.734" y="68.383" fill="#fff" rx="2.178"/><rect width="20.329" height="4.356" x="38.222" y="60.469" fill="#fff" rx="2.178" transform="rotate(90 38.222 60.47)"/><circle cx="91.214" cy="64.929" r="3.52" fill="#fff" transform="rotate(90 91.214 64.929)"/><circle cx="80.888" cy="77.133" r="3.52" fill="#fff" transform="rotate(90 80.888 77.133)"/><defs><linearGradient id="b" x1="16.847" x2="108.457" y1="41.662" y2="115.754" gradientUnits="userSpaceOnUse"><stop stop-color="#DE5AFF" stop-opacity=".9"/><stop offset=".447" stop-color="#FF56FC" stop-opacity=".955"/><stop offset="1" stop-color="#E44EFF" stop-opacity=".9"/></linearGradient><linearGradient id="d" x1="60.355" x2="60.355" y1="35.123" y2="106" gradientUnits="userSpaceOnUse"><stop offset=".025" stop-color="#DE5AFF" stop-opacity=".9"/><stop offset=".495" stop-color="#FF56FC" stop-opacity=".96"/><stop offset="1" stop-color="#E44EFF" stop-opacity=".9"/></linearGradient><linearGradient id="e" x1="20.932" x2="96.898" y1="32.591" y2="101.871" gradientUnits="userSpaceOnUse"><stop stop-color="#FAE7FF" stop-opacity=".52"/><stop offset=".474" stop-color="#FF56FC" stop-opacity=".96"/><stop offset=".662" stop-color="#F6B4FF" stop-opacity=".1"/></linearGradient><clipPath id="a" transform="translate(25 -5.123)"><path d="M5 70.561C5 50.99 20.724 35.123 40.12 35.123h40.47c19.396 0 35.12 15.866 35.12 35.438S99.986 106 80.59 106H40.12C20.724 106 5 90.134 5 70.561"/></clipPath><clipPath id="c" transform="translate(25 -5.123)"><path fill-rule="evenodd" d="M80.59 35.357H40.12c-19.268 0-34.887 15.762-34.887 35.204 0 19.443 15.62 35.204 34.887 35.204h40.47c19.268 0 34.887-15.761 34.887-35.204 0-19.442-15.62-35.204-34.887-35.204m-40.47-.234C20.724 35.123 5 50.989 5 70.56S20.724 106 40.12 106h40.47c19.396 0 35.12-15.866 35.12-35.439 0-19.572-15.724-35.438-35.12-35.438z" clip-rule="evenodd"/></clipPath></defs></svg>
